!!!COM: Johann Sebastian Bach
!!!OPR: Canonic Variations on 'Vom Himmel hoch, da komm ich her'
!!!OTL: Canon alla settima (Canon No. 4)
!!!SCT: BWV 769d
**kern	**kern	**kern	**kern
*guida	*conseq	*freeV	*CF
*k[]	*k[]	*k[]	*k[]
*C:	*C:	*C:	*C:
*M4/4	*M4/4	*M4/4	*M4/4
=1	=1	=1	=1
8r	2r	4e	1r
8c	.	.	.
8B	.	16f	.
.	.	16e	.
8A	.	16d	.
.	.	16c	.
8B	8r	[4g	.
8G	8b	.	.
8A	8a	16g]	.
.	.	16f	.
8B	8g	16e	.
.	.	16d	.
=2	=2	=2	=2
8c	8a	32e	1r
.	.	32d	.
.	.	16c	.
8A	8f#	8cc	.
8G	8g	8r	.
8F#	8a	[8d	.
8G	8b	8d]	.
8E	8g	8b-	.
8Fn	8fn	(16a	.
.	.	16g)	.
8G	8e	(32a	.
.	.	32g)	.
.	.	16f	.
=3	=3	=3	=3
8A	8f	(16f	1r
.	.	32g	.
.	.	32a)	.
8F	8d	8a	.
8E	8e	16r	.
.	.	16g	.
8D	8f	16a	.
.	.	16b	.
8E	8g	8cc	.
8C	8e	(8c	.
8D	8d	32d	.
.	.	32c)	.
.	.	16B	.
8E	8c	8c	.
=4	=4	=4	=4
8F	8d	16c	2r
.	.	[8.a	.
8D	8B	.	.
8C	8c	8a]	.
8BB	8d	16gM	.
.	.	16f	.
8C	8e	4e	2cc
8AA	8c	.	.
8BB	8B	8r	.
8C	8A	[8a	.
=5	=5	=5	=5
8D	8B	16a]	2b
.	.	16f#	.
8E	8G	16g	.
.	.	16a	.
8r	8A	16g	.
.	.	16fn	.
[8G	8B	16e	.
.	.	16d	.
8G]	8c	16e	2a
.	.	8f	.
16Fn	8d	.	.
16E	.	16g	.
8F	8r	16f	.
.	.	16e	.
8A	[8fn	16d	.
.	.	16c	.
=6	=6	=6	=6
8D	8f]	16d	2b
.	.	16a	.
8r	16e	16g	.
.	16d	16f	.
8r	8e	24g	.
.	.	24f	.
.	.	24e	.
[8F	8g	24d	.
.	.	24c	.
.	.	24B	.
8F]	8c	[8c	2g
16E	8r	32c]	.
.	.	32d	.
16D	.	32c	.
.	.	32B	.
8E	8r	16c	.
.	.	16g	.
[8G	[8e	16B-	.
.	.	16A	.
=7	=7	=7	=7
8G]	8e]	8A	2a
16F	16d	8r	.
16E	16c	.	.
8F	8d	16r	.
.	.	32f	.
.	.	32e	.
[8A	[8f	32d	.
.	.	32e	.
.	.	16c	.
8A]	8f]	16d	2b
.	.	16f	.
8G	16e	16g	.
.	16d	[16a	.
8r	8e	16a]	.
.	.	16g	.
8E	[8g	(32a	.
.	.	32g)	.
.	.	16f	.
=8	=8	=8	=8
8AA	8g]	16e	2cc
.	.	16d	.
8A	8f#	16c	.
.	.	16d	.
8G	8r	16e	.
.	.	16f#	.
8F#	8d	16g	.
.	.	16a	.
8G	8G	(32cc	2r
.	.	32b)	.
.	.	16a	.
8E	8g	8g	.
8Fn	8fn	8r	.
8G	8e	8gS	.
=9	=9	=9	=9
8A	8f	(16g	1r
.	.	[8.cc	.
8F	8d	.	.
8E	8e	16cc])	.
.	.	32dd	.
.	.	32cc	.
8D	8f	32b	.
.	.	32cc	.
.	.	16a	.
8E	8g	(16a	.
.	.	[8.g	.
8C	8e	.	.
8D	8d	16g])	.
.	.	32a	.
.	.	32g	.
8E	8c	32f	.
.	.	32g	.
.	.	16e	.
=10	=10	=10	=10
8F	8d	16d	2r
.	.	8f	.
8G	8B	.	.
.	.	16e	.
[4A	8c	(16e	.
.	.	8fw	.
.	8d	.	.
.	.	16g	.
8A]	8e	(16f	2cc
.	.	16e)	.
16G	8f	8r	.
16F	.	.	.
8E	[4g	16r	.
.	.	16cc	.
8D	.	16b	.
.	.	16a	.
=11	=11	=11	=11
8E	8g]	16g	2cc
.	.	16f	.
8C	16f	16a	.
.	16e	16g	.
[4F	8d	(32f	.
.	.	32e	.
.	.	16d)	.
.	8c	(32e	.
.	.	32d	.
.	.	16c)	.
8F]	8d	16B	2g
.	.	16c	.
16E	8B	[8d	.
16D	.	.	.
8E	[4e	16d]	.
.	.	32c	.
.	.	32B	.
8C	.	32A	.
.	.	32B	.
.	.	16G	.
=12	=12	=12	=12
4AA	8e]	8.c	(4.g
.	16d	.	.
.	16c	32d	.
.	.	32e	.
4BB	8d	16d	.
.	.	16c	.
.	8B	[8d	8f)
8C	4G	16d]	(4.e
.	.	8c	.
8E	.	.	.
.	.	16B	.
8D	4A	16c	.
.	.	8e	.
8C	.	.	8f)
.	.	16d	.
=13	=13	=13	=13
8BB	8B	16d	2g
.	.	8f	.
8GG	8d	.	.
.	.	16e	.
[4E	8c	(32f	.
.	.	32e)	.
.	.	16d	.
.	8B	(32e	.
.	.	32d)	.
.	.	16c	.
8E]	8A	16c	2f
.	.	16B	.
16D	8F	(32c	.
.	.	32B)	.
16C	.	16A	.
8BB	[4d	16G#	.
.	.	16A	.
8AA	.	16A	.
.	.	16B	.
=14	=14	=14	=14
8EE	8d]	16B	2e
.	.	32A	.
.	.	32G#	.
8EE	16c	16A	.
.	16B	16B	.
8AA	8A	(32d	.
.	.	32c)	.
.	.	16B	.
8r	8Gn	[8c	.
8r	8F#	16c]	2r
.	.	16a	.
8C	8D	16gn	.
.	.	16f#	.
8BB	8G	16e	.
.	.	16d	.
8AA	8r	16e	.
.	.	16f#	.
=15	=15	=15	=15
8BB	8r	4g	1r
8GG	8B	.	.
8AA	8A	4r	.
8BB	8G	.	.
8C	8A	8r	.
16D	8F#	[8d	.
16C	.	.	.
8BB	8G	32d]	.
.	.	32e	.
.	.	32f#	.
.	.	32g	.
8C	8A	16f#	.
.	.	16e	.
=16	=16	=16	=16
8D	8B	16d	2r
.	.	16B	.
8E	16c	(16A	.
.	16B	16G)	.
8F	8A	32r	.
.	.	32f	.
.	.	32g	.
.	.	32a	.
16E	8B	16g	.
16D	.	16f	.
8E	8c	16e	2e
.	.	8d	.
8F	8d	.	.
.	.	16c	.
[4G	8e	(32d	.
.	.	32c)	.
.	.	16B-	.
.	16d	(32c	.
.	.	32B-)	.
.	16c#	16A	.
=17	=17	=17	=17
8G]	8d	8A	2a
16F	8e	8r	.
16E	.	.	.
8D	[4f	16r	.
.	.	16A	.
8E	.	16d	.
.	.	16c#	.
8F	8f]	16d	2a
.	.	16e	.
8G	16e	16e	.
.	16d	16f	.
8A	8cn	16f	.
.	.	16B	.
16G	8d	16B	.
16F	.	16cn	.
=18	=18	=18	=18
8E	8e	16c	2g
.	.	32d	.
.	.	32c	.
8D	8f	32B	.
.	.	32c	.
.	.	16d	.
8E	8g	8G	.
8C	16f	8r	.
.	16e	.	.
8G	8d	16r	2b
.	.	16d	.
8GG	8c	16e	.
.	.	16f#	.
8r	8d	16g	.
.	.	32f#	.
.	.	32e	.
[8D	8B	16f#	.
.	.	16g	.
=19	=19	=19	=19
8D]	8f#	(32b	(4cc
.	.	32a)	.
.	.	16g	.
8D#	8F#	[8a	.
8E	8r	32a]	4b)
.	.	32g	.
.	.	32f#	.
.	.	32e	.
8Fn	[8c	16d#	.
.	.	[16e	.
4F#	8c]	16e]	2a
.	.	16g	.
.	8c#	16f#	.
.	.	16e	.
8r	8dn	16dn	.
.	.	16cn	.
8FF#	8d#	16B	.
.	.	16A	.
=20	=20	=20	=20
8EE	4e	16B	2g
.	.	16c	.
8E	.	16c	.
.	.	16d	.
8D	8r	16d	.
.	.	16e	.
8C	8E	16e	.
.	.	16fn	.
8D	8D	[4f	2r
8BB	8d	.	.
8C	8c	16f]	.
.	.	16e	.
8D	8B	(32f	.
.	.	32e)	.
.	.	16d	.
=21	=21	=21	=21
8E	8c	16c	1r
.	.	16d	.
8C	8A	16e	.
.	.	16f#	.
8BB	8B	16g	.
.	.	8g#	.
8AA	8c	.	.
.	.	[16a	.
8BB	8d	16a]	.
.	.	8g#	.
8EE	8B	.	.
.	.	[16a	.
4r	8A	16a]	.
.	.	8b	.
.	8G#	.	.
.	.	16cc	.
=22	=22	=22	=22
8r	8A	[4cc	2r
8G	8D	.	.
8F#	4r	16cc]	.
.	.	16b	.
8E	.	16a	.
.	.	16g	.
8F#	8r	[4a	2cc
8D#	8f#	.	.
8E	8e	16a]	.
.	.	16g	.
8F#	8d#	32f#	.
.	.	32g	.
.	.	16a	.
=23	=23	=23	=23
8G	8e	16a	2b
.	.	[8.g	.
8E	8c#	.	.
8D	8dn	16g]	.
.	.	16fn	.
8C#	8e	32e	.
.	.	32f	.
.	.	[16g	.
8D	8fn	16g]	2a
.	.	16f	.
8r	8d	(32g	.
.	.	32f)	.
.	.	16e	.
8r	8cn	(32f	.
.	.	32e)	.
.	.	16d	.
[8F	8B	16d	.
.	.	16g	.
=24	=24	=24	=24
8F]	8c	16g	2g
.	.	[8.c	.
16E	8r	.	.
16D	.	.	.
8E	8r	16c]	.
.	.	16B-	.
8G	[8e	(32c	.
.	.	32B-)	.
.	.	16A	.
8C	8e]	16A	2a
.	.	16g	.
16D	16d	16f	.
16E	16c	16e	.
8F	8d	16d	.
.	.	16c	.
[8A	8f	16Bn	.
.	.	16c	.
=25	=25	=25	=25
8A]	8B	(16c	(4f
.	.	[8.d	.
16G	16c	.	.
16F	16d	.	.
8G	8e	16d])	4e)
.	.	16c	.
8E	[8g	(32d	.
.	.	32c)	.
.	.	16B-	.
8F	8g]	16A	2d
.	.	16Bn	.
8D	16f	16B	.
.	16e	16c	.
8G	8f	8.Bm	.
8GG	8d	.	.
.	.	16c	.
=26	=26	=26	=26
8C	8e	[4c	[1c
8BB-	8c	.	.
8AA	8f	16c]	.
.	.	16d	.
8A	8F	16d	.
.	.	16e	.
8G	8B-	16e	.
.	.	16f	.
8F	8A	16f	.
.	.	16g	.
8E	8G	16g	.
.	.	16a	.
16D	8g	(16a	.
16E	.	[16b-	.
=27	=27	=27	=27
4F	8f	16b-]	1c;]
.	.	16a	.
.	8e	16g	.
.	.	16a	.
4FF	8dM	16g	.
.	.	16f	.
.	16c	16e	.
.	16d	16f	.
2CC;	2e;	(4f	.
.	.	4g;	.
==	==	==	==
*-	*-	*-	*-
!!!CDT: 1685/3//-1750/7/28
!!!OCY: Deutschland
!!!ODT: ?1736
!!!AFR: chorale variations
!!!AST: polyphony
!!!AMT: simple quadruple
!!!SCA: Bach-Werke-Verzeichnis
!!!AIN: organ
!!!YEP: David Huron and Denis Collins
!!!YEN: Canada
!!!EEV: 1.0
!!!RDT: 1995 April 29
!!!YED: 1995 August 31
